!!!OTL: DEUTSCHES HERZ VERZAGE NICHT
!!!ARE: Europa, Mitteleuropa, Deutschland
!!!SCT: F0229
!!!YEM: Copyright 1995, estate of Helmut Schaffrath.
**kern
*ICvox
*Ivox
*M4/4
*k[f#]
*G:
{8b
8cc
=1
4.dd
8b
4cc
4a
=2
2b
4r}
{8b
8b
=3
4a
4dd
4.ee
8cc#
=4
2dd
4r}
{8b
8cc
=5
4.dd
8dd
8cc
8b
8a
8g
=6
2ee
4r}
{8cc
8cc
=7
4b
4dd
4.cc
8a
=8
2g
4r}
==
!!!AGN: Vaterlands - Lied, national
!!!ONB: ESAC (Essen Associative Code) Database: FINK
!!!AMT: simple quadruple
!!!AIN: vox
!!!EED: Helmut Schaffrath
!!!EEV: 1.0
*-
